react_frontend/src/Components/MyPieces/Images/BR.svg

<?xml version="1.0" encoding="UTF-8" standalone="no"?>
<svg
   xmlns:dc="http://purl.org/dc/elements/1.1/"
   xmlns:cc="http://creativecommons.org/ns#"
   xmlns:rdf="http://www.w3.org/1999/02/22-rdf-syntax-ns#"
   xmlns:svg="http://www.w3.org/2000/svg"
   xmlns="http://www.w3.org/2000/svg"
   xmlns:sodipodi="http://sodipodi.sourceforge.net/DTD/sodipodi-0.dtd"
   xmlns:inkscape="http://www.inkscape.org/namespaces/inkscape"
   inkscape:version="1.0 (4035a4fb49, 2020-05-01)"
   sodipodi:docname="BR.svg"
   id="svg26"
   height="100"
   width="100"
   version="1.1">
  <metadata
     id="metadata32">
    <rdf:RDF>
      <cc:Work
         rdf:about="">
        <dc:format>image/svg+xml</dc:format>
        <dc:type
           rdf:resource="http://purl.org/dc/dcmitype/StillImage" />
        <dc:title></dc:title>
      </cc:Work>
    </rdf:RDF>
  </metadata>
  <defs
     id="defs30" />
  <sodipodi:namedview
     inkscape:current-layer="svg26"
     inkscape:window-maximized="1"
     inkscape:window-y="-9"
     inkscape:window-x="-9"
     inkscape:cy="12.979182"
     inkscape:cx="-21.896746"
     inkscape:zoom="3.0445856"
     showgrid="false"
     id="namedview28"
     inkscape:window-height="1001"
     inkscape:window-width="1920"
     inkscape:pageshadow="2"
     inkscape:pageopacity="0"
     guidetolerance="10"
     gridtolerance="10"
     objecttolerance="10"
     borderopacity="1"
     bordercolor="#666666"
     pagecolor="#ffffff"
     inkscape:document-rotation="0" />
  <g
     transform="matrix(2.5396825,0,0,2.5396825,-6.6422323,-10.413381)"
     id="g24"
     style="opacity:1;fill-opacity:1;fill-rule:evenodd;stroke:#000000;stroke-width:1.5;stroke-linecap:round;stroke-linejoin:round;stroke-miterlimit:4;stroke-dasharray:none;stroke-opacity:1">
    <path
       id="path2"
       style="stroke-linecap:butt"
       d="M 9,39 H 36 V 36 H 9 Z" />
    <path
       id="path4"
       style="stroke-linecap:butt"
       d="M 12.5,32 14,29.5 h 17 l 1.5,2.5 z" />
    <path
       id="path6"
       style="stroke-linecap:butt"
       d="m 12,36 v -4 h 21 v 4 z" />
    <path
       id="path8"
       style="stroke-linecap:butt;stroke-linejoin:miter"
       d="m 14,29.5 v -13 h 17 v 13 z" />
    <path
       id="path10"
       style="stroke-linecap:butt"
       d="M 14,16.5 11,14 h 23 l -3,2.5 z" />
    <path
       id="path12"
       style="stroke-linecap:butt"
       d="M 11,14 V 9 h 4 v 2 h 5 V 9 h 5 v 2 h 5 V 9 h 4 v 5 z" />
    <path
       id="path14"
       style="fill:none;stroke:#ffffff;stroke-width:1;stroke-linejoin:miter"
       d="m 12,35.5 h 21 v 0" />
    <path
       id="path16"
       style="fill:none;stroke:#ffffff;stroke-width:1;stroke-linejoin:miter"
       d="M 13,31.5 H 32" />
    <path
       id="path18"
       style="fill:none;stroke:#ffffff;stroke-width:1;stroke-linejoin:miter"
       d="M 14,29.5 H 31" />
    <path
       id="path20"
       style="fill:none;stroke:#ffffff;stroke-width:1;stroke-linejoin:miter"
       d="M 14,16.5 H 31" />
    <path
       id="path22"
       style="fill:none;stroke:#ffffff;stroke-width:1;stroke-linejoin:miter"
       d="M 11,14 H 34" />
  </g>
</svg>

<?xml version="1.0" encoding="UTF-8" standalone="no"?>
<!DOCTYPE svg PUBLIC "-//W3C//DTD SVG 1.1//EN" "http://www.w3.org/Graphics/SVG/1.1/DTD/svg11.dtd">
<svg xmlns="http://www.w3.org/2000/svg" version="1.1" width="45" height="45">
  <g style="opacity:1; fill:000000; fill-opacity:1; fill-rule:evenodd; stroke:#000000; stroke-width:1.5; stroke-linecap:round;stroke-linejoin:round;stroke-miterlimit:4; stroke-dasharray:none; stroke-opacity:1;">
    <path
      d="M 9,39 L 36,39 L 36,36 L 9,36 L 9,39 z "
      style="stroke-linecap:butt;" />
    <path
      d="M 12.5,32 L 14,29.5 L 31,29.5 L 32.5,32 L 12.5,32 z "
      style="stroke-linecap:butt;" />
    <path
      d="M 12,36 L 12,32 L 33,32 L 33,36 L 12,36 z "
      style="stroke-linecap:butt;" />
    <path
      d="M 14,29.5 L 14,16.5 L 31,16.5 L 31,29.5 L 14,29.5 z "
      style="stroke-linecap:butt;stroke-linejoin:miter;" />
    <path
      d="M 14,16.5 L 11,14 L 34,14 L 31,16.5 L 14,16.5 z "
      style="stroke-linecap:butt;" />
    <path
      d="M 11,14 L 11,9 L 15,9 L 15,11 L 20,11 L 20,9 L 25,9 L 25,11 L 30,11 L 30,9 L 34,9 L 34,14 L 11,14 z "
      style="stroke-linecap:butt;" />
    <path
      d="M 12,35.5 L 33,35.5 L 33,35.5"
      style="fill:none; stroke:#ffffff; stroke-width:1; stroke-linejoin:miter;" />
    <path
      d="M 13,31.5 L 32,31.5"
      style="fill:none; stroke:#ffffff; stroke-width:1; stroke-linejoin:miter;" />
    <path
      d="M 14,29.5 L 31,29.5"
      style="fill:none; stroke:#ffffff; stroke-width:1; stroke-linejoin:miter;" />
    <path
      d="M 14,16.5 L 31,16.5"
      style="fill:none; stroke:#ffffff; stroke-width:1; stroke-linejoin:miter;" />
    <path
      d="M 11,14 L 34,14"
      style="fill:none; stroke:#ffffff; stroke-width:1; stroke-linejoin:miter;" />
  </g>
</svg>
